src/pos-icons/brightness-7.svg

<svg height="24" viewBox="0 0 24 24" width="24" xmlns="http://www.w3.org/2000/svg"><path d="m12 8a4 4 0 0 0 -4 4 4 4 0 0 0 4 4 4 4 0 0 0 4-4 4 4 0 0 0 -4-4m0 10a6 6 0 0 1 -6-6 6 6 0 0 1 6-6 6 6 0 0 1 6 6 6 6 0 0 1 -6 6m8-9.31v-4.69h-4.69l-3.31-3.31-3.31 3.31h-4.69v4.69l-3.31 3.31 3.31 3.31v4.69h4.69l3.31 3.31 3.31-3.31h4.69v-4.69l3.31-3.31z"/></svg>

<?xml version="1.0" encoding="UTF-8"?><!DOCTYPE svg PUBLIC "-//W3C//DTD SVG 1.1//EN" "http://www.w3.org/Graphics/SVG/1.1/DTD/svg11.dtd"><svg xmlns="http://www.w3.org/2000/svg" xmlns:xlink="http://www.w3.org/1999/xlink" version="1.1" id="mdi-brightness-7" width="24" height="24" viewBox="0 0 24 24"><path d="M12,8A4,4 0 0,0 8,12A4,4 0 0,0 12,16A4,4 0 0,0 16,12A4,4 0 0,0 12,8M12,18A6,6 0 0,1 6,12A6,6 0 0,1 12,6A6,6 0 0,1 18,12A6,6 0 0,1 12,18M20,8.69V4H15.31L12,0.69L8.69,4H4V8.69L0.69,12L4,15.31V20H8.69L12,23.31L15.31,20H20V15.31L23.31,12L20,8.69Z" /></svg>
